!!!!SEGMENT: pl-kk--kk-i-10--009_lilius-franciszek--gloria-laus-et-honor.krn
!!!cenid: 16xx:1201
!!!COM: Lilius, Franciszek
!!!COM-rismid: pe30020509
!!!CDT: ~1600-1657
!!!CNT: Polish
!!!OTL: Gloria laus et honor
!!!PDT:
!!!AGN: Sacred
!!!SMS-siglum: PL-Kk
!!!SMS-shelfmark: Kk.I.10
!!!SMS-shelfwork: 009 W
!!!SMS-variant:
!!!SMS-altvar:
!!!NIFC-rismid: 1001153877
!!!URL-scan: http://repozytorium.nifc.pl/skany/pl-kk-nut--i-10
!!!ONB-nifc: UWAGA: A (skan 0020-cały), T (0069), B (0118-0119). Następny utwór: Magnum nomen Domini
**kern	**text	**kern	**text	**kern	**text	**kern
*part4	*part4	*part3	*part3	*part2	*part2	*part1
*staff4	*staff4	*staff3	*staff3	*staff2	*staff2	*staff1
*Ibass	*	*Itenor	*	*Ialto	*	*Ivox
*I"Bassus.	*	*I"Tenor	*	*I"Altus.	*	*I"[Cantus]
*I'B	*	*I'T	*	*I'A	*	*I'S
*clefF4	*	*clefC4	*	*clefC3	*	*clefC3
*k[]	*	*k[]	*	*k[]	*	*k[]
*C:	*	*C:	*	*C:	*	*C:
*M2/2	*	*M2/2	*	*M2/2	*	*M2/2
*met(c|)	*	*met(c|)	*	*met(c|)	*	*met(c|)
*all\right	*	*all\right	*	*all\right	*	*
*2\right	*	*2\right	*	*2\right	*	*
*lig	*	*	*	*	*	*
!	!	!LO:TX:a:i:t=Pro Dominica \nPalmar(um) F. L. a4.	!	!	!	!
*	*	*lig	*	*	*	*
!	!	!	!	!LO:TX:a:i:t=Per Dominica Palar(um) a 4. F. L. C M. C. C.	!	!
!	!	!	!	!	!	!LO:TX:a:t=P:problem:brak tej pertii w źródle
1AA	GLo-	1A	GLo-	(>0e	GLo-	0ryy
1E	.	1G	.	.	.	.
*Xlig	*	*Xlig	*	*	*	*
=1-	=1-	=1-	=1-	=1-	=1-	=1-
1F	.	1F	-ri-	1.c	-ri-	0ryy
*	*	*lig	*	*	*	*
2.C/	-ri-	1G	-a	.	.	.
.	.	.	.	2c/)	-a	.
4C/	-a	.	.	.	.	.
=2-	=2-	=2-	=2-	=2-	=2-	=2-
2FF/	.	1A	.	1c,<	.	0ryy
2.FF/	lauſ	.	.	.	.	.
*	*	*Xlig	*	*	*	*
*	*	*lig	*	*	*	*
.	.	1A	La-	2.c/	La-	.
4GG/	.	.	.	.	.	.
4AA/	.	.	.	.	.	.
4BB/	.	.	.	4d\	.	.
=3-	=3-	=3-	=3-	=3-	=3-	=3-
4C/	.	1G	-us	4e\	-us	0ryy
4D/	.	.	.	4f\	.	.
4E\	.	.	.	4g\	.	.
4C/	.	.	.	4e\	.	.
*	*	*Xlig	*	*	*	*
1D,<	.	1F	et	2f,<\	.	.
.	.	.	.	2d\	et	.
=4-	=4-	=4-	=4-	=4-	=4-	=4-
2C/	et	1G	Ho-	2e\	Ho-	0ryy
2.C/	Ho-	.	.	4e\	-nor	.
.	.	.	.	4f\	.	.
.	.	1G	-nor	4g\	.	.
4D/	.	.	.	4f\	.	.
2E\	.	.	.	4e\	.	.
.	.	.	.	4d\	.	.
=5-	=5-	=5-	=5-	=5-	=5-	=5-
*	*	*lig	*	*	*	*
1F	.	1A	ti-	1.c	ti-	0ryy
1C	-nor	1G	.	.	.	.
.	.	.	.	2c/	-bi	.
*	*	*Xlig	*	*	*	*
=6-	=6-	=6-	=6-	=6-	=6-	=6-
1D	ti-	1F	.	1.A	ſit	0ryy
1AA	-bi	1E	-bi	.	.	.
!	!	!	!	!LO:SIC:v:t=custos A	!	!
.	.	.	.	2A/	Rex	.
!	!	!	!	!LO:LB:g=original	!	!
=7-	=7-	=7-	=7-	=7-	=7-	=7-
!LO:SIC:v:t=custos C	!	!	!	!	!	!
1D	ſit	1D	ſit	2.A/	ti-	0ryy
.	.	.	.	4B/	.	.
!LO:LB:g=original	!	!LO:SIC:v:t=custos G	!	!	!	!
2.C/	Rex	1G	Rex	4c/	.	.
.	.	.	.	4d\	.	.
.	.	.	.	(>1e\	-bi	.
4D/	.	.	.	.	.	.
!	!	!LO:LB:g=original	!	!	!	!
=8-	=8-	=8-	=8-	=8-	=8-	=8-
2E\	.	1G	Chri-	.	.	0ryy
1G	Chri-	.	.	2d\)	.	.
.	.	1D	-ſte	1d	ſit	.
!LO:TX:t=P:problem:# above	!	!	!	!	!	!
2F#X\	.	.	.	.	.	.
=9-	=9-	=9-	=9-	=9-	=9-	=9-
1G	.	1G	re-	2d\	Rex	0ryy
.	.	.	.	2d\	Chri-	.
1C	-ſte	1G	-dem-	4e\	-ſte	.
.	.	.	.	2f\	.	.
.	.	.	.	4e\	Re-	.
=10-	=10-	=10-	=10-	=10-	=10-	=10-
1Fny,<	re-	1F,<	-ptor	1f	-dem-	0ryy
*	*	*lig	*	*	*	*
1.D	-de(m)-	1F	Cu-	1d,>	-ptor	.
=11-	=11-	=11-	=11-	=11-	=11-	=11-
.	.	1A	.	2d\	Cu-	0ryy
!LO:TX:t=P:problem:# below	!	!	!	!	!	!
4C#X/	-ptor	.	.	1A	-i	.
4BB/	Cu-	.	.	.	.	.
*	*	*Xlig	*	*	*	*
!LO:TX:t=P:problem:# above	!	!	!	!	!	!
2C#X/	.	1A	-i	.	.	.
2D/	-i	.	.	2.a\	pu-	.
=12-	=12-	=12-	=12-	=12-	=12-	=12-
*	*	*lig	*	*	*	*
2.AA/	pu-	1A	pu-	.	.	0ryy
.	.	.	.	4g\	.	.
.	.	.	.	1f	.	.
4BB/	.	.	.	.	.	.
1Cny	-e-	1G	.	.	.	.
.	.	.	.	2e\	-e-	.
*	*	*Xlig	*	*	*	*
=13-	=13-	=13-	=13-	=13-	=13-	=13-
1D	-ri-	1F	-e-	4d\	.	0ryy
.	.	.	.	4e\	.	.
.	.	.	.	1f	.	.
0C	-le	1G	-ri-	.	.	.
.	.	.	.	4e\	.	.
.	.	.	.	4d\	.	.
=14-	=14-	=14-	=14-	=14-	=14-	=14-
!	!	!	!	!LO:SIC:v:t=custos e	!	!
.	.	1G	-le	[>2e\	-ri-	0ryy
!	!	!	!	!LO:LB:g=original	!	!
.	.	.	.	2e\]	.	.
*	*	*lig	*	*	*	*
1F	de-	1A	de-	2f,<\	-le	.
.	.	.	.	(>2f\	de-	.
=15-	=15-	=15-	=15-	=15-	=15-	=15-
(>2E\	-cus	1G	.	2g\)	.	0ryy
2C/)	.	.	.	1e	.	.
*	*	*Xlig	*	*	*	*
*	*	*lig	*	*	*	*
1D	prom-	1F	-cus	.	.	.
.	.	.	.	1d\	.	.
=16-	=16-	=16-	=16-	=16-	=16-	=16-
1AA,<	-psit	1E	.	.	.	0ryy
.	.	.	.	2c#X/	.	.
*	*	*Xlig	*	*	*	*
!LO:SIC:v:t=custos BB	!	!	!	!	!	!
*	*	*lig	*	*	*	*
1D	O-	1D	prom-	2d\	-cus	.
.	.	.	.	1d\	prom-	.
!LO:LB:g=original	!	!	!	!	!	!
=17-	=17-	=17-	=17-	=17-	=17-	=17-
2BB/	.	1G	.	.	.	0ryy
2GG/	-ſan-	.	.	2B/	.	.
*	*	*Xlig	*	*	*	*
!	!	!LO:SIC:v:t=custos F	!	!	!	!
2.C/	-na	1E	-psit	2G/	-psit	.
.	.	.	.	2.cny/	O-	.
4BB/	pi-	.	.	.	.	.
!	!	!LO:LB:g=original	!	!	!	!
=18-	=18-	=18-	=18-	=18-	=18-	=18-
*	*	*lig	*	*	*	*
1AA	.	1F	O-	.	.	0ryy
.	.	.	.	4B/	.	.
.	.	.	.	2A/	-ſan-	.
1BB-X	.	1D	.	2.d\	.	.
.	.	.	.	4c/	.	.
*	*	*Xlig	*	*	*	*
=19-	=19-	=19-	=19-	=19-	=19-	=19-
1GG	.	1E	-ſan-	2B/	.	0ryy
.	.	.	.	2B/	-na	.
!	!	!LO:TX:t=P:problem:# above	!	!	!	!
1AA	-um,	1C#X	-na	1A	pi-	.
=20-	=20-	=20-	=20-	=20-	=20-	=20-
1.D	.	0D	pi-	1A	-u(m)	0ryy
.	.	.	.	2rA	.	.
2D/	o-	.	.	2F#X/	o-	.
=21-	=21-	=21-	=21-	=21-	=21-	=21-
!	!	!LO:N:vis=0	!	!	!	!
2GG/	-ſan-	00D;>	-um.	2G/	-ſan-	0ryy
!LO:TX:t=P:problem:# above	!	!	!	!	!	!
2FF#X/	-na	.	.	2A/	-na	.
1GG	pi-	.	.	1B-X	pi-	.
=22-	=22-	=22-	=22-	=22-	=22-	=22-
0D;<	-um.	.	.	0A;>	-u(m).	0ryy
!LO:LB:g=original	!	!	!	!LO:LB:g=original	!	!
=23-	=23-	=23-	=23-	=23-	=23-	=23-
*M2/2	*	*M2/2	*	*	*	*
*met(c|)	*	*met(c|)	*	*	*	*
1.D	I-	2r	.	1.f	I-	0ryy
.	.	(>1A	I-	.	.	.
2D/	-ſra-	2.d\)	.	2f\	-ſra-	.
=24-	=24-	=24-	=24-	=24-	=24-	=24-
2AA/	-el	.	.	1e	-el	0ryy
.	.	4d\	-ſra-	.	.	.
2AA/	es	2c#X\	-el	.	.	.
1D	tu	1d	es	(>1.f	es	.
=25-	=25-	=25-	=25-	=25-	=25-	=25-
0C	Rex	1G	Tu	.	.	0ryy
.	.	.	.	4e\)	.	.
.	.	.	.	4d\	tu	.
.	.	1cny	Rex	1e	Rex	.
=26-	=26-	=26-	=26-	=26-	=26-	=26-
1.G	Da-	2.d\	Da-	1.g	Da-	0ryy
.	.	4c\	.	.	.	.
.	.	2B\	-ui-	.	.	.
!	!	!LO:SIC:v:t=custos A	!	!	!	!
2E\	-ui-	2G/	-dis	2g\	-ui-	.
!	!	!LO:LB:g=original	!	!	!	!
=27-	=27-	=27-	=27-	=27-	=27-	=27-
2D/	.	(<1.A	in-	2f\	-diſ	0ryy
1AA	-dis	.	.	[>1e	in-	.
!	!	!LO:TX:a:t=P:problem:# below	!	!	!	!
2E\	in-	2G#X/)	.	2e]	.	.
=28-	=28-	=28-	=28-	=28-	=28-	=28-
(<[>2F\	-cly-	2A/	-cly-	2c\	-cly-	0ryy
2F\])	-ta	2A/	-ta	2d\	-ta	.
1E	pro-	1B	pro-	1e	pro-	.
=29-	=29-	=29-	=29-	=29-	=29-	=29-
1AA	-les	1c#X	-les	1e	-les	0ryy
2r	.	2r	.	2r	.	.
2.FFny/	no-	2.A/	no-	2.f\	No-	.
=30-	=30-	=30-	=30-	=30-	=30-	=30-
.	.	.	.	.	.	0ryy
4FF/	-mi-	4A/	-mi-	4f\	-mi-	.
2C/	-ne	2cny\	-ne	2e\	-ne	.
!	!	!	!	!LO:SIC:v:t=custos g	!	!
2F\	qui	2c\	qui	1f	qui	.
2D/	.	2d\	in	.	.	.
!	!	!	!	!LO:LB:g=original	!	!
=31-	=31-	=31-	=31-	=31-	=31-	=31-
*	*	*lig	*	*	*	*
4C/	in	1e	Do-	1g	in	0ryy
4D/	.	.	.	.	.	.
4E\	.	.	.	.	.	.
!LO:SIC:v:t=custos G	!	!	!	!	!	!
4F\	Do-	.	.	.	.	.
!LO:LB:g=original	!	!	!	!	!	!
1G	.	1.d	.	1.g	Do-	.
*	*	*Xlig	*	*	*	*
=32-	=32-	=32-	=32-	=32-	=32-	=32-
1D	-mi-	.	.	.	.	0ryy
!	!	!	!	!LO:TX:t=P:problem:# above	!	!
.	.	2d\	-mi-	2f#X\	-mi-	.
1GG	-ni	1B	-ni	1g	-ni	.
=33-	=33-	=33-	=33-	=33-	=33-	=33-
2rC	.	2r	.	2re	.	0ryy
!	!	!	!	!LO:TX:t=P:problem:# below	!	!
2D/	Rex	2d\	Rex	2f#X\	Rex	.
2D/	.	2d\	be-	2f#\	be-	.
2BB/ny	be-	2d\	-ne-	2g\	-ne-	.
=34-	=34-	=34-	=34-	=34-	=34-	=34-
4AA/	-ne-	4e\	-di-	2a\	-di-	0ryy
4BB/	-di-	4d\	.	.	.	.
4C/	.	4c\	.	1e	-cte	.
4D/	.	8B\L	.	.	.	.
.	.	8A\J	.	.	.	.
!	!	!LO:TX:a:t=P:problem:# below	!	!	!	!
2E\	-cte	2G#X/	-cte	.	.	.
2F\	Ve-	2A/	Ve-	2d\	Ve-	.
=35-	=35-	=35-	=35-	=35-	=35-	=35-
1E	.	1B	.	1e	.	0ryy
!LO:N:vis=0	!	!LO:N:vis=0	!	!LO:N:vis=0	!	!
1AA;>	-nis.	1c#X;<	-nis.	1e;<	-nis.	.
!	!	!LO:PB:g=original	!	!LO:LB:g=original	!	!
=36-	=36-	=36-	=36-	=36-	=36-	=36-
*M2/2	*	*M2/2	*	*M2/2	*	*
*met(c|)	*	*met(c|)	*	*met(c|)	*	*
1.D	C(oe)-	1A	C(oe)-	1.fny	C(oe)-	0ryy
.	.	2A/	-tus	.	.	.
2D/	-tus	1d\	in	2f\	-tus	.
=37-	=37-	=37-	=37-	=37-	=37-	=37-
2.A\	in	.	.	2e\	in	0ryy
!	!	!LO:TX:t=P:problem:# above	!	!	!	!
.	.	2c#X\	ex-	2e\	ex-	.
4A\	ex-	.	.	.	.	.
1D	-cel-	1d	-cel-	1.f	-cel-	.
=38-	=38-	=38-	=38-	=38-	=38-	=38-
!LO:SIC:v:t=custos G	!	!	!	!	!	!
1C	-ſis	1Gny	-ſis	.	.	1ryy
.	.	.	.	2e\	-ſis	.
!LO:LB:g=original	!	!	!	!	!	!
=39-	=39-	=39-	=39-	=39-	=39-	=39-
*M3/1	*	*M3/1	*	*M3/1	*	*M3/1
1G	Te	1G	Te	1d	Te	1%3ryy
1G	Lau-	1G	lau-	1d	lau-	.
1E	-dat	1G	-dat	1e	-dat	.
=40-	=40-	=40-	=40-	=40-	=40-	=40-
1.D	c(oe)-	1.A	c(oe)-	1.f	c(oe)-	1%3ryy
2D/	-li-	2A/	-li-	2f\	-li-	.
1AA	-cus	1A	-cus	1e	-cuſ	.
=41-	=41-	=41-	=41-	=41-	=41-	=41-
(>0E	o-	(>0G#X	o-	(>0e	o-	1%3ryy
1F)	.	1A	.	1c)	.	.
=42-	=42-	=42-	=42-	=42-	=42-	=42-
0.E	-mnis	0.B)	.	0.e	-mnis	1%3ryy
=43-	=43-	=43-	=43-	=43-	=43-	=43-
0.AA	.	0.A	-mnis	0.c	.	1%3ryy
=44-	=44-	=44-	=44-	=44-	=44-	=44-
0F	et	0A	et	(>0f	e	1%3ryy
!	!	!LO:SIC:v:t=custos c	!	!	!	!
1C	mor-	1cny	mor-	1e)	.	.
!	!	!LO:LB:g=original	!	!LO:LB:g=original	!	!
=45-	=45-	=45-	=45-	=45-	=45-	=45-
*	*	*	*	*col	*	*
0F	-ta-	0c	-ta-	0f	mor-	1%3ryy
*	*	*	*	*Xcol	*	*
1D	-lis	1d	-lis	1f	-ta-	.
=46-	=46-	=46-	=46-	=46-	=46-	=46-
2C/	.	(>0e	Ho-	0.g	-liſ	1%3ryy
2D/	ho-	.	.	.	.	.
2E\	.	.	.	.	.	.
2F\	.	.	.	.	.	.
1G	.	2d\	.	.	.	.
.	.	2c\)	.	.	.	.
=47-	=47-	=47-	=47-	=47-	=47-	=47-
*col	*	*	*	*	*	*
0.D	-mo	0.d	.	0g	ho-	1%3ryy
!	!	!	!	!LO:TX:t=P:problem:# below	!	!
.	.	.	.	1f#X	.	.
=48-	=48-	=48-	=48-	=48-	=48-	=48-
0.GG	.	0.B	-mo	0.g	-mo	1%3ryy
*Xlig	*	*	*	*	*	*
=49-	=49-	=49-	=49-	=49-	=49-	=49-
1G	et	1B	et	1d	et	1%3ryy
1F	cun-	1c	cun-	1fny	cun-	.
!LO:SIC:v:t=custos C	!	!	!	!	!	!
1D	-cta	1d	-cta	1f	-cta	.
!LO:PB:g=original	!	!	!	!	!	!
=50-	=50-	=50-	=50-	=50-	=50-	=50-
1C	cre-	1e	cre-	1g	cre-	1%3ryy
1GG	-a-	1d	-a-	1g	-a-	.
1AA	-ta	1c	-ta	1e	-ta	.
=51-	=51-	=51-	=51-	=51-	=51-	=51-
0.E	ſi-	0.B	ſi-	0.e	ſi-	1%3ryy
=52-	=52-	=52-	=52-	=52-	=52-	=52-
0.AA;>	-mul.	0.c#X;<	-mul	0.e;;	-mul.	1%3ryy
!	!	!	!	!LO:LB:g=original	!	!
=53-	=53-	=53-	=53-	=53-	=53-	=53-
*M2/2	*	*M2/2	*	*M2/2	*	*M2/2
*met(c|)	*	*met(c|)	*	*met(c|)	*	*met(c|)
1.D	Plebs	2r	.	1.f	PLebs	0ryy
.	.	1A	Plebs	.	.	.
2D/	He-	1d\	He-	2f\	He-	.
=54-	=54-	=54-	=54-	=54-	=54-	=54-
2AA/	-br(ae)-	.	.	1e	-br(ae)-	0ryy
2AA/	-a	2c#X\	-br(ae)-	.	.	.
1D	ti-	1d,<	-a	1.f	-a	.
=55-	=55-	=55-	=55-	=55-	=55-	=55-
1C	-bi	1Gny	ti-	.	.	0ryy
.	.	.	.	4e\	ti-	.
.	.	.	.	4d\	.	.
1C	cúm	1cny,<	-bi	1e,<	-bi	.
=56-	=56-	=56-	=56-	=56-	=56-	=56-
1.G	pal-	(>2.d\	ti-	1.g	cu(m)	0ryy
.	.	4c\	.	.	.	.
.	.	2B,<\)	-bi	.	.	.
2E\	-mis	2G/	c(um)	2g\	pal-	.
=57-	=57-	=57-	=57-	=57-	=57-	=57-
2D/	ob-	2A/	pal-	2f\	-miſ	0ryy
1AA	-ui-	1A	-mis	1e	ob-	.
!LO:SIC:v:t=custos F	!	!LO:TX:t=P:problem:# below	!	!	!	!
2E\	-á	2G#X/	ob-	2e\	-ui-	.
!LO:LB:g=original	!	!	!	!	!	!
=58-	=58-	=58-	=58-	=58-	=58-	=58-
(>1F	Ve-	2A/	.	(<2c/	-am	0ryy
.	.	4A/	-ui-	2d\)	.	.
.	.	4A/	-a(m)	.	.	.
1E)	.	1B	Ve-	1e	Ve-	.
=59-	=59-	=59-	=59-	=59-	=59-	=59-
1AA	-nit	1c#X	-nit	1e	-nit	0ryy
2rBB	.	2r	.	2r	.	.
2F\	cum	2A/	Cum	2.f\	Cum	.
=60-	=60-	=60-	=60-	=60-	=60-	=60-
2F\	.	2A/	pre-	.	.	0ryy
.	.	.	.	4f\	pre-	.
!	!	!LO:SIC:v:t=custos c	!	!	!	!
2C/	pre-	2cny\	-ce	2e\	-ce	.
!	!	!LO:LB:g=original	!	!	!	!
2F\	-ce	2c\	Vo-	1f	[vo]-	.
2D/	Vo-	2d\	-to	.	.	.
!	!	!	!	!LO:PB:g=original	!	!
=61-	=61-	=61-	=61-	=61-	=61-	=61-
4C/	-to	(>1e	Hy-	1g	-to	0ryy
4D/	.	.	.	.	.	.
4E\	Hy-	.	.	.	.	.
4F\	.	.	.	.	.	.
[y1G	.	0d	.	1.g	Hy-	.
=62-	=62-	=62-	=62-	=62-	=62-	=62-
1G]yy	.	.	.	.	.	0ryy
!	!	!	!	!LO:TX:t=P:problem:# above	!	!
.	.	.	.	2f#X\	.	.
1C	-mnis	1B)	-mnis	1g	-mniſ	.
=63-	=63-	=63-	=63-	=63-	=63-	=63-
2r	.	2r	.	2r	.	0ryy
!	!	!	!	!LO:TX:t=P:problem:# above	!	!
2D/	ad-	2d\	ad-	2f#X\	ad-	.
2D/	-ſu-	2d\	-ſu-	2f#\	-ſu-	.
2BB/	-mus	2d\	-mus	2g\	-muſ	.
=64-	=64-	=64-	=64-	=64-	=64-	=64-
4AA/	ec-	4e\	ec-	2a\	ec-	0ryy
4BB/	.	4d\	.	.	.	.
4C/	.	4c\	.	1e	-ce	.
4D/	.	8B\L	.	.	.	.
.	.	8A\J	.	.	.	.
2E\	-ce	2G#X/	.	.	.	.
2F\	.	2A/	-ce	2d\	ti-	.
=65-	=65-	=65-	=65-	=65-	=65-	=65-
1E	ti-	1B	ti-	1e	.	0ryy
!LO:N:vis=0	!	!LO:N:vis=0	!	!LO:N:vis=0	!	!
1AA;>	-bi.	1c#X;<	-bi.	1e;<	-bi.	.
!LO:LB:g=original	!	!LO:LB:g=original	!	!LO:LB:g=original	!	!
=66-	=66-	=66-	=66-	=66-	=66-	=66-
*M2/2	*	*M2/2	*	*M2/2	*	*
*met(c|)	*	*met(c|)	*	*met(c|)	*	*
1D	Hi	2r	.	1.fny	Hi	0ryy
.	.	1A	Hi	.	.	.
2D/	ti-	.	.	.	.	.
2D/	-bi	1d\	Ti-	2f\	ti-	.
=67-	=67-	=67-	=67-	=67-	=67-	=67-
1A	paſ-	.	.	2.e\	-bi	0ryy
!	!	!LO:TX:t=P:problem:# above	!	!	!	!
.	.	2c#X\	-bi	.	.	.
.	.	.	.	4e\	paſ-	.
1D	-su-	2.d\	paſ-	1.f	-su-	.
.	.	4d\	-su-	.	.	.
=68-	=68-	=68-	=68-	=68-	=68-	=68-
1C	-ro	1Gny	-ro	.	.	1ryy
.	.	.	.	2e\	-ro	.
=69-	=69-	=69-	=69-	=69-	=69-	=69-
*M3/1	*	*M3/1	*	*M3/1	*	*M3/1
1G	ſol-	1G	ſol-	1d	ſol-	1%3ryy
1G	-ue-	1G	-ue-	1d	-ue-	.
1E	-bant	1G	-bant	1e	-bant	.
=70-	=70-	=70-	=70-	=70-	=70-	=70-
1.D	mu-	1.A	mu-	1.f	mu-	1%3ryy
2D/	-ni-	2A/	-ni-	2f\	-ni-	.
1AA	-a	1A	-a	1e	-a	.
=71-	=71-	=71-	=71-	=71-	=71-	=71-
(>0E	lau-	(>0G#X	lau-	(>0e	lau-	1%3ryy
1F)	.	1A	.	1c)	.	.
=72-	=72-	=72-	=72-	=72-	=72-	=72-
0.E	.	0.B	.	0.e	-diſ	1%3ryy
=73-	=73-	=73-	=73-	=73-	=73-	=73-
!LO:SIC:v:t=custos F	!	!LO:SIC:v:t=custos A	!	!	!	!
0.AA	-dis	0.A)	-dis	0.c,<	.	1%3ryy
!LO:LB:g=original	!	!LO:LB:g=original	!	!	!	!
=74-	=74-	=74-	=74-	=74-	=74-	=74-
1F	nos	1A	nos	1f	nos	1%3ryy
1F	Ti-	1A	ti-	1f	Ti-	.
!	!	!	!	!LO:SIC:v:t=custos f	!	!
1C	-bi	1cny	-bi	1e	-bi	.
!	!	!	!	!LO:LB:g=original	!	!
=75-	=75-	=75-	=75-	=75-	=75-	=75-
0F	re-	0c	Re-	0.f	re-	1%3ryy
1D,<	-gna	1d	-gna	.	.	.
=76-	=76-	=76-	=76-	=76-	=76-	=76-
2C/	.	0e	.	0g	-gna-	1%3ryy
2D/	.	.	.	.	.	.
2E\	dan-	.	.	.	.	.
2F\	.	.	.	.	.	.
1G	.	2d\	dan-	1g	.	.
.	.	2c\	.	.	.	.
=77-	=77-	=77-	=77-	=77-	=77-	=77-
0.D	.	0.d	.	0g	-dan-	1%3ryy
!	!	!	!	!LO:TX:t=P:problem:# below	!	!
.	.	.	.	1f#X	.	.
=78-	=78-	=78-	=78-	=78-	=78-	=78-
0.GG	-ti	0.d	-ti	0.g	-ti	1%3ryy
=79-	=79-	=79-	=79-	=79-	=79-	=79-
1G	pan-	1B	pan-	1d	pan-	1%3ryy
1F	-gi-	1c	-gi-	1fny	-gi-	.
1D	-mus	1d	-mus	1f	-muſ	.
=80-	=80-	=80-	=80-	=80-	=80-	=80-
*lig	*	*lig	*	*	*	*
1C	ec-	1e	ec-	0g	ec-	1%3ryy
1GG	.	1d	.	.	.	.
*Xlig	*	*Xlig	*	*	*	*
1AA	-ce	1c	-ce	1e	-ce	.
=81-	=81-	=81-	=81-	=81-	=81-	=81-
*	*	*col	*	*	*	*
0.E	me-	0.B	me-	0.e	me-	1%3ryy
*	*	*Xcol	*	*	*	*
=82-	=82-	=82-	=82-	=82-	=82-	=82-
0.AA;>	-los.	0.c#X;<	-los.	0.e;<	-los.	1%3ryy
!LO:LB:g=original	!	!LO:LB:g=original	!	!LO:LB:g=original	!	!
=83-	=83-	=83-	=83-	=83-	=83-	=83-
*M2/2	*	*M2/2	*	*M2/2	*	*M2/2
*met(c|)	*	*met(c|)	*	*met(c|)	*	*met(c|)
1D	Hi	2r	.	1f	Hi	0ryy
.	.	1A	Hi	.	.	.
1D	pla-	.	.	1f	pla-	.
.	.	1d\	pla-	.	.	.
=84-	=84-	=84-	=84-	=84-	=84-	=84-
1AA	-cu-	.	.	1e	-cu-	0ryy
!	!	!LO:TX:t=P:problem:# above	!	!	!	!
.	.	2c#X\	-cu-	.	.	.
2.D/	-e-	2.d\	-ê-	2.f\	-ê-	.
4D/	-re	4d\	-re	4f\	-re	.
=85-	=85-	=85-	=85-	=85-	=85-	=85-
*	*	*lig	*	*	*	*
1C	Ti-	1Gny	ti-	1e	ti-	0ryy
1C,<	-bi	(<1cny	.	1e	-bi	.
*	*	*Xlig	*	*	*	*
=86-	=86-	=86-	=86-	=86-	=86-	=86-
1.G	pla-	2.d\	.	2r	.	0ryy
.	.	.	.	1g	Ti-	.
.	.	4c\)	.	.	.	.
.	.	2B\	.	.	.	.
2E\	-ce-	2G,</	-bi	2g\	-bi	.
=87-	=87-	=87-	=87-	=87-	=87-	=87-
2D/	-at	2.A/	pla-	2f\	pla-	0ryy
2AA/	de-	.	.	2e\	-ce-	.
.	.	4A/	-ce-	.	.	.
2AA/	-uo-	2A/	-at	4e\	-at	.
.	.	.	.	4e\	de-	.
!	!	!LO:TX:t=P:problem:# below	!	!	!	!
2E\	-ti-	2G#X/	de-	2.e\	-uo-	.
=88-	=88-	=88-	=88-	=88-	=88-	=88-
!LO:TX:a:t=F	!	!	!	!	!	!
1F	-o	2A/	-uo-	.	.	0ryy
.	.	.	.	4e\	-ti-	.
.	.	4A/	-ti-	2d\	-o	.
.	.	4A/	-o	.	.	.
1E	no-	1B	noſ-	1e	noſ-	.
=89-	=89-	=89-	=89-	=89-	=89-	=89-
!	!	!LO:SIC:v:t=custos A	!	!	!	!
!	!	!LO:TX:t=P:problem:# above	!	!	!	!
1AA	-ſtra	1c#X	-tra	1e	-tra	0ryy
!	!	!LO:LB:g=original	!	!	!	!
2r	.	2r	.	2r	.	.
!	!	!	!	!LO:SIC:v:t=custos f	!	!
1F\	Rex	2A/	Rex	2f\	Rex	.
!	!	!	!	!LO:LB:g=original	!	!
=90-	=90-	=90-	=90-	=90-	=90-	=90-
.	.	2A/	pi-	2f\	pi-	0ryy
!LO:SIC:v:t=custos F	!	!	!	!	!	!
2C/	pi-	[<2cny\	-e	2e\	-e	.
!LO:LB:g=original	!	!	!	!	!	!
2F\	-e	2c\]	.	1f,<	Rex	.
2D/	Rex	(>2d\	Rex	.	.	.
=91-	=91-	=91-	=91-	=91-	=91-	=91-
4C/	.	1e	cle-	(>1g	Cle-	0ryy
4D/	.	.	.	.	.	.
4E\	Cle-	.	.	.	.	.
4F\	.	.	.	.	.	.
*lig	*	*	*	*	*	*
1G	.	0d)	.	4g\	.	.
.	.	.	.	4d\)	.	.
.	.	.	.	1g\	.	.
=92-	=92-	=92-	=92-	=92-	=92-	=92-
1D	.	.	.	.	.	0ryy
!	!	!	!	!LO:TX:t=P:problem:# above	!	!
.	.	.	.	2f#X\	-mens	.
*Xlig	*	*	*	*	*	*
1GG	-mens	1d	-mens	1g	.	.
=93-	=93-	=93-	=93-	=93-	=93-	=93-
2rBB	.	2r	.	2r	.	0ryy
!	!	!	!	!LO:TX:t=P:problem:# above	!	!
4D/	Cu-	4d\	Cu-	4f#X\	Cu-	.
4D/	-i	4d\	-i	4f#\	-i	.
!	!	!	!	!LO:TX:t=P:problem:# above	!	!
2D/	bo-	2d\	bo-	2f#X\	bo-	.
2BB/	-na	2d\	-na	2g#X\	-na	.
=94-	=94-	=94-	=94-	=94-	=94-	=94-
4AA/	cun-	4e\	cun-	2a\	cun-	0ryy
4BB/	.	4d\	.	.	.	.
4C/	.	4c\	.	1e	.	.
4D/	.	8B\L	.	.	.	.
.	.	8A\J	.	.	.	.
2E\	-cta	2G#X/	-cta	.	.	.
2F\	.	2A/	.	2d\	-cta	.
=95-	=95-	=95-	=95-	=95-	=95-	=95-
1E	pla-	1B	pla-	1e	pla-	0ryy
!	!	!LO:TX:b:i:t=Gloria Laus\nVt ſup.	!	!	!	!
!LO:N:vis=0	!	!LO:N:vis=0	!	!LO:N:vis=0	!	!
1AA	-cent.	1c#X;<	-cent	1e;<	-cent	.
!LO:TX:a:t=P:problem:w źródle ta adnotacja zapisana na pięciolinii, za ostatnią nutą	!	!	!	!LO:TX:a:t=P:problem:w źródle ta adnotacja zapisana na pięciolinii, za ostatnią nutą	!	!
!LO:TX:b:i:t=Gloria Laus\nVt ſupra.	!	!	!	!LO:TX:a:i:t=Gloria Laus\nVt ſupra.	!	!
=-	=-	=-	=-	=-	=-	=-
*-	*-	*-	*-	*-	*-	*-
!!!system-decoration: [(s1,s2,s3,s4)]
!!!RDF**kern: > = above
!!!RDF**kern: < = below
!!!EED: Antoni Szymański
!!!EST: 2021-07-06
!!!ENC: Mateusz Solarz
!!!END: 2021-06-25
